X:1
T:Far, Far Away on Judea’s Plains
T:Far, Far Away on Judea’s Plains
T:John Menzies Macfarlane
T:John Menzies Macfarlane, 1869
T:Public Domain Courtesy of the Cyber Hymnal™
C:John Menzies Macfarlane
Z:Public Domain
Z:Courtesy of the Cyber Hymnal™
%%score ( 1 2 ) ( 3 4 )
L:1/8
Q:1/4=110
M:4/4
K:F
V:1 treble 
V:2 treble 
V:3 bass 
V:4 bass 
V:1
 F2 F>[EG] [FA]2 [FA]>[GB] | [Ac]2 ([Ac]>[GB]) [FA]4 | [EG]2 [EG]>[FA] [GB]2 [FA][Ac] | %3
w: 1.~Far, far a- way on Ju-|de- a’s * plains,|Shep- herds of old heard the|
w: 2.~Sweet are these strains of re-|deem- ing * love,|Me- ssage of me- rcy from|
w: 3.~Lord, with the an- gels we|too would~re- * joice;|Help us to sing with the|
w: 4.~Hast- en the time when, from|ev- ery * clime,|Men shall u- nite in the|
 ([Bd][Ac]) ([GB][FA]) ([FA]2 [EG]2) ||"^Refrain" [CF]2 F>[EG] [FA]4 | [Ec]2 [Ec]>[EB] [FA]4 | %6
w: joy- * ous * strains: *|||
w: Heav- * en * above: *|||
w: heart * and * voice: *|Glor- y to God,|glor- y to God,|
w: strains * sub- * lime: *|||
 [Fd]2 [Fd]>[Fd] [Fc]2 F[CF] | B2 [FA]2 [EG]4 | [CF]2 [A,C]2 [B,D]2 [B,E]2 | [CF]2 [CG]2 [CA]4 | %10
w: ||||
w: ||||
w: Glor- y to God in the|high- est; Peace|* on earth, good|will to men;|
w: ||||
 c3 [Ec] [Fc]3 [GB] | [FA]2 [EG]2 F4 |] %12
w: ||
w: ||
w: Peace on earth, good|will to men.|
w: ||
V:2
 F2 F3/2 x9/2 | x8 | x8 | x8 || x2 F3/2 x9/2 | x8 | x6 F x | DE x6 | x8 | x8 | (EFG) x5 | x4 F4 |] %12
V:3
 F,2 C,2 F,2 C,2 | A,,2 C,2 F,4 | C,6 F,2 | B,,4 C,4 || [F,A,]2 [A,C]>[G,C] ([F,C]2 E,D,) | %5
 G,2 G,>G, F,2 x2 | B,4 [F,A,]2 [B,D][A,C] | ([G,B,]2 [F,C]2) [C,C]4 | %8
 [F,,A,]2 [F,,F,]2 [B,,F,]2 [G,,G,]2 | [A,,F,]2 [C,E,]2 F,4 | G,3 [C,G,] ([F,A,][G,B,][A,C])[B,D] | %11
 C2 (CB,) [F,A,]4 |] %12
V:4
 F,2 C,2 F,2 C,2 | A,,2 C,2 F,4 | C,6 F,2 | B,,4 C,4 || x8 | C,4 (F,2 G,A,) | B,,>C, D,>E, x4 | %7
 x8 | x8 | x4 F,4 | (C,D,E,) x5 | C2 C,2 x4 |] %12

